src/4-icons/comment.svg

<svg width="260" height="260" viewBox="0 0 260 260" fill="none" xmlns="http://www.w3.org/2000/svg"><path d="M86 117a7 7 0 1 0 0-14 7 7 0 0 0 0 14Zm44 0a7 7 0 1 0 0-14 7 7 0 0 0 0 14Zm51-7a7 7 0 1 1-14 0 7 7 0 0 1 14 0Z" fill="#000"/><path fill-rule="evenodd" clip-rule="evenodd" d="M60 170h61.26l28.907 41.434c1.313 2.249 3.67 3.414 6.026 3.357 2.368.074 4.739-1.086 6.054-3.344L189.184 170H200c33.137 0 60-26.863 60-60s-26.863-60-60-60H60C26.863 50 0 76.863 0 110s26.863 60 60 60Zm59.5-14c4.757 0 8.96 2.373 11.49 5.999l.01.002 25.191 32.98L179.001 162l.01-.002A13.982 13.982 0 0 1 190.5 156h9.5c25.405 0 46-20.595 46-46s-20.595-46-46-46H60c-25.405 0-46 20.595-46 46s20.595 46 46 46h59.5Z" fill="#000"/></svg>

<svg width="260" height="260" viewBox="0 0 260 260" fill="none" xmlns="http://www.w3.org/2000/svg">
<path d="M86 117C89.866 117 93 113.866 93 110C93 106.134 89.866 103 86 103C82.134 103 79 106.134 79 110C79 113.866 82.134 117 86 117Z" fill="black"/>
<path d="M130 117C133.866 117 137 113.866 137 110C137 106.134 133.866 103 130 103C126.134 103 123 106.134 123 110C123 113.866 126.134 117 130 117Z" fill="black"/>
<path d="M181 110C181 113.866 177.866 117 174 117C170.134 117 167 113.866 167 110C167 106.134 170.134 103 174 103C177.866 103 181 106.134 181 110Z" fill="black"/>
<path fill-rule="evenodd" clip-rule="evenodd" d="M60 170H121.26L150.167 211.434C151.48 213.683 153.837 214.848 156.193 214.791C158.561 214.865 160.932 213.705 162.247 211.447L189.184 170H200C233.137 170 260 143.137 260 110C260 76.8629 233.137 50 200 50H60C26.8629 50 0 76.8629 0 110C0 143.137 26.8629 170 60 170ZM119.5 156C124.257 156 128.46 158.373 130.99 161.999L131 162.001L156.191 194.981L179.001 162L179.011 161.998C181.541 158.372 185.743 156 190.5 156H200C225.405 156 246 135.405 246 110C246 84.5949 225.405 64 200 64H60C34.5949 64 14 84.5949 14 110C14 135.405 34.5949 156 60 156H119.5Z" fill="black"/>
</svg>
